svg/printer_pos_network.svg

<svg xmlns="http://www.w3.org/2000/svg" viewBox="0 0 24 24"><path d="M17 7H7V2h10zm5 13v2h-7c0 .55-.45 1-1 1h-4c-.55 0-1-.45-1-1H2v-2h7c0-.55.45-1 1-1h1v-2H4v-7a2 2 0 0 1 2-2h12a2 2 0 0 1 2 2v7h-7v2h1c.55 0 1 .45 1 1zm-4-10h-4v2h4z"/></svg>

<svg xmlns="http://www.w3.org/2000/svg" id="mdi-printer-pos-network" viewBox="0 0 24 24"><path d="M17 7H7V2H17V7M22 20V22H15C15 22.55 14.55 23 14 23H10C9.45 23 9 22.55 9 22H2V20H9C9 19.45 9.45 19 10 19H11V17H4V10C4 8.9 4.89 8 6 8H18C19.11 8 20 8.9 20 10V17H13V19H14C14.55 19 15 19.45 15 20H22M18 10H14V12H18V10Z" /></svg>
